X:2809
T:Centerville
R:reel
C:Dougie MacDonald
O:20th century Cape Breton
D:Fiddle Tunes
B:Cape Breton Fiddler Dougie MacDonald:Fiddle Tunes, 1993
N:Bookings,Mechanicals etc.
N:..... Dougie MacDonald <dougie@cranfordpub.com>
N:More tunes and information <http://www.cranfordpub.com/dougie>
Z:This abc transcription is for personal use only,
Z:provided this notice remains attached.
Z:Used by permission of the composer.
Z:Paul Stewart Cranford <psc@cranfordpub.com>
Q:333
L:1/8
M:C|
K:Bminor
P:A
e|:fBBA F2 EF|A/A/A cA eAce|fBBA FBBe|fbb^g afec|!
fBBA FEFB|A/A/A cA eAce|faaf e2 ce|[1fdec BBBg:|[2fdec B2||!
P:B
cA|B2 Bc BAFA|BABc ({c}d2) cB|c2 cd cBAe|fc c/c/c c2BA|
B2 Bc BAFA|BABc d2 cB|c2 Bc A/A/A Aa|fdec B2 cA|!
P:alternate B part (including variation to B3 and B4)
B2 Bc BAFA|BABc ({c}d2) cB|cA A/A/A eA A/A/A| fd ed cAec|!
B2 Bc BAFA|BABc d2 cB|c2 Bc A/A/A Aa|fdec B2 B|]!


